X: 1833
T: Rita Baker Schottische No 2
B: australian traditional tunes wiki
M:4/4
L:1/8
R: Schottische
Q: 1/4=100
K:G
V:1 
DG|"G"B2B2"D"c>Bc2|"G"d2d>B"Em"G2G2|"D"D>F A>B c>B c<d|"G"e2d^cd2d>c|
B2B2"D"c>Bc2|"G"d2d>B"Em"G2G2|"D"D>F A>B c<A F>A|"G"G2G2G2B>c||
"G"d2b2a2g2|"C"(3faf e>de2e2|"D"f>e c<A f>e c<A|"G"e2d2d2B>c|
d2b2a2g2|"C"(3faf e>d e2-e2|"D"f>e c<A f>e c<A|"G"G2G2G2z2||
% abcbook-tune_id 6342d53a335c5dfc6af55a3b


% abcbook-boost 0
% abcbook-tablature 
% abcbook-transpose 
% abcbook-lastupdated 1665324386782
% abcbook-soundfonts 
% abcbook-repeats 1
% NFF Book 2007

